X: 27521
T: Môn
R: polka
M: 2/4
K: Dmajor
|:(3A/B/c/|d>d AA|FA de/f/|g>f ed|e>d c/B/A|
dd AA/A/|FA dd/e/|ff ee|d3:|
|:d/e/|f>f dd|ef/e/ cc|de/f/ g>f|e>d c/B/A/c/|
d>d A>A|F/G/A d>e|ff ec|d3:|

